public/unity/unity-master-black.svg

<svg xmlns="http://www.w3.org/2000/svg" viewBox="0 0 300 109" xmlns:xlink="http://www.w3.org/1999/xlink">
  <defs>
    <path id="a" d="M108.578 108.94H0V.422h108.578z"/>
  </defs>
  <g fill="none" fill-rule="evenodd">
    <mask id="b" fill="#fff">
      <use xlink:href="#a"/>
    </mask>
    <path fill="#020000" d="M96.698.422L52.348 11.98l-6.565 11.263-13.32-.097L0 54.716l32.463 31.567 13.313-.097 6.58 11.257L96.696 109l11.88-43.115-6.75-11.168 6.75-11.166L96.7.426zM46.852 25.056l33.925-8.48-19.474 32.808H22.348l24.504-24.328zm0 59.316L22.348 60.044h38.955l19.474 32.808-33.925-8.48zm43.42 3.147L70.79 54.713 90.27 21.9l9.41 32.815-9.41 32.802z" mask="url(#b)"/>
    <path fill="#020000" d="M197.298 32.412c-5.928 0-9.905 2.455-12.87 7.11h-.253v-5.925h-10.372v43.43h10.626V52.392c0-5.925 3.72-9.988 8.8-9.988 4.826 0 8.423 2.86 8.423 7.958V77.03h10.626V48.666c0-9.482-6.01-16.254-14.984-16.254M157.64 58.636c0 5.758-3.303 9.82-8.72 9.82-4.912 0-8-2.793-8-7.873V33.577h-10.626V62.53c0 9.482 5.417 15.663 15.07 15.663 6.094 0 9.48-2.285 12.444-6.265h.254v5.08h10.215v-43.43H157.64v25.058m60.213 18.392h10.627v-43.43h-10.627m0-4.818h10.627v-8.73h-10.627m70.684 13.547l-6.313 19.556c-1.355 3.98-2.54 9.482-2.54 9.482h-.27s-1.438-5.503-2.794-9.482l-7.13-19.556h-11.36l11.684 30.9c2.454 6.604 3.3 9.398 3.3 11.768 0 3.557-1.862 5.927-6.433 5.927h-4.06v9.058h6.773c8.805 0 11.86-3.47 15.164-13.122l15.314-44.53h-11.33m-40.26 30.646V41.217h6.774v-7.62h-6.77V20.05H237.73v13.547h-6.01v7.62h6.01V66.7c0 8.212 6.18 10.412 11.768 10.412 4.57 0 5.812-.17 5.812-.17v-8.395s-1.27.015-2.71.015c-2.54 0-4.318-1.102-4.318-4.318"/>
  </g>
</svg>

<?xml version="1.0" encoding="UTF-8" standalone="no"?>
<svg width="300px" height="109px" viewBox="0 0 300 109" version="1.1" xmlns="http://www.w3.org/2000/svg" xmlns:xlink="http://www.w3.org/1999/xlink">
    <!-- Generator: Sketch 47.1 (45422) - http://www.bohemiancoding.com/sketch -->
    <title>unity-master-black</title>
    <desc>Created with Sketch.</desc>
    <defs>
        <polygon id="path-1" points="108.578 108.94 0 108.94 0 54.681 0 0.422 108.578 0.422"></polygon>
    </defs>
    <g id="Page-1" stroke="none" stroke-width="1" fill="none" fill-rule="evenodd">
        <g id="unity-master-black">
            <g>
                <g id="Group-3">
                    <mask id="mask-2" fill="white">
                        <use xlink:href="#path-1"></use>
                    </mask>
                    <g id="Clip-2"></g>
                    <path d="M96.698,0.422 L52.347,11.979 L45.783,23.243 L32.463,23.146 L0,54.717 L32.463,86.283 L45.776,86.186 L52.355,97.443 L96.698,108.999 L108.578,65.885 L101.828,54.717 L108.578,43.551 L96.698,0.422 Z M46.852,25.056 L80.777,16.576 L61.303,49.384 L22.348,49.384 L46.852,25.056 Z M46.852,84.372 L22.348,60.044 L61.303,60.044 L80.777,92.852 L46.852,84.372 Z M90.271,87.519 L70.79,54.717 L90.271,21.903 L99.679,54.717 L90.271,87.519 L90.271,87.519 Z" id="Fill-1" fill="#020000" mask="url(#mask-2)"></path>
                </g>
                <path d="M197.298,32.412 C191.37,32.412 187.393,34.867 184.429,39.523 L184.175,39.523 L184.175,33.597 L173.803,33.597 L173.803,77.028 L184.429,77.028 L184.429,52.391 C184.429,46.465 188.153,42.402 193.233,42.402 C198.059,42.402 201.656,45.263 201.656,50.36 L201.656,77.028 L212.282,77.028 L212.282,48.666 C212.282,39.184 206.271,32.412 197.298,32.412" id="Fill-4" fill="#020000"></path>
                <path d="M157.639,58.636 C157.639,64.394 154.337,68.457 148.919,68.457 C144.008,68.457 140.92,65.663 140.92,60.583 L140.92,33.577 L130.294,33.577 L130.294,62.53 C130.294,72.012 135.711,78.193 145.363,78.193 C151.458,78.193 154.845,75.908 157.808,71.928 L158.062,71.928 L158.062,77.007 L168.277,77.007 L168.277,33.577 L157.639,33.577 L157.639,58.636" id="Fill-5" fill="#020000"></path>
                <polygon id="Fill-6" fill="#020000" points="217.853 77.028 228.48 77.028 228.48 33.597 217.853 33.597"></polygon>
                <polygon id="Fill-7" fill="#020000" points="217.853 28.781 228.48 28.781 228.48 20.051 217.853 20.051"></polygon>
                <path d="M288.537,33.597 L282.224,53.153 C280.869,57.132 279.684,62.635 279.684,62.635 L279.415,62.635 C279.415,62.635 277.976,57.132 276.62,53.153 L269.49,33.597 L258.13,33.597 L269.814,64.497 C272.268,71.101 273.114,73.895 273.114,76.265 C273.114,79.822 271.252,82.192 266.681,82.192 L262.617,82.192 L262.617,91.25 L269.39,91.25 C278.194,91.25 281.251,87.779 284.553,78.128 L299.867,33.597 L288.537,33.597" id="Fill-8" fill="#020000"></path>
                <path d="M248.278,64.244 L248.278,41.217 L255.051,41.217 L255.051,33.597 L248.278,33.597 L248.278,20.051 L237.726,20.051 L237.726,33.597 L231.715,33.597 L231.715,41.217 L237.726,41.217 L237.726,66.699 C237.726,74.912 243.905,77.112 249.494,77.112 C254.065,77.112 255.306,76.943 255.306,76.943 L255.306,68.547 C255.306,68.547 254.035,68.562 252.596,68.562 C250.056,68.562 248.278,67.46 248.278,64.244" id="Fill-9" fill="#020000"></path>
            </g>
        </g>
    </g>
</svg>
